X: 1
T:Teddy O'Neill  "69"
M:6/8
L:1/8
Q:80
C:Arr. M. Dietz
S:Air
K:HP
A[|
{g}f2{GdG}f{gfg}f{g}e3/2f/2|
{gf}g3/2{a}B/2e{Gdc}d{e}c3/2B/2|
{g}A3/2d/2{c}d{gde}d2{g}c/2d/2|  !
{gfg}f3/2{g}e/2d{gef}e2{AGAG}A|
{g}f2{GdG}f{gfg}f{g}e3/2f/2|
{gf}g3/2{a}B/2e{Gdc}d{e}c3/2B/2|  !
{g}A{Gdc}df{ag}a3/2g/2{a}f|
{gef}e/2B3/2{d}c{Gdc}d2|
{g}c3/4d/4|  !
{g}e2{GdG}e{gef}e2f|
{gf}g{a}f3/2e/2{gfg}f3/2dc/2|
{Gdc}d3/2e/2d{gde}d3/2c/2d|  !
{gfg}f{g}e3/2d/2{gef}e2{AGAG}A|
{g}f2{GdG}f{gfg}f{g}e3/2f/2|
{gf}g3/2{a}B/2e{Gdc}d{e}c3/2B/2|  !
{g}A{Gdc}df{ag}a3/2g/2{a}f|
{gef}e/2B3/2{d}c{Gdc}d2|]
